icons/Yaru-remix-dark/scalable/actions/go-next-symbolic-rtl.svg

<svg height="16" width="16" xmlns="http://www.w3.org/2000/svg">
    <path d="M10 0c-.69.874-1.397 1.757-2.008 2.656-.679 1-1.287 1.972-1.825 2.912C5.67 6.436 5.297 7.342 5 8c.297.658.67 1.564 1.167 2.432a45.19 45.19 0 0 0 1.825 2.912c.61.9 1.317 1.782 2.008 2.656v-1.49c-.4-.524-.837-1.062-1.222-1.625a32.845 32.845 0 0 1-1.37-2.18 39.196 39.196 0 0 1-1.285-2.5v-.001L6.027 8l.096-.203c.334-.71.852-1.747 1.285-2.501a33.18 33.18 0 0 1 1.37-2.181c.385-.562.822-1.1 1.222-1.625V0z" fill="gray"/>
</svg>

<?xml version="1.0" encoding="UTF-8" standalone="no"?>
<svg
   xmlns:dc="http://purl.org/dc/elements/1.1/"
   xmlns:cc="http://creativecommons.org/ns#"
   xmlns:rdf="http://www.w3.org/1999/02/22-rdf-syntax-ns#"
   xmlns:svg="http://www.w3.org/2000/svg"
   xmlns="http://www.w3.org/2000/svg"
   xmlns:sodipodi="http://sodipodi.sourceforge.net/DTD/sodipodi-0.dtd"
   xmlns:inkscape="http://www.inkscape.org/namespaces/inkscape"
   height="16"
   width="16"
   version="1.1"
   id="svg4"
   sodipodi:docname="go-next-symbolic-rtl.svg"
   inkscape:version="1.0.1 (3bc2e813f5, 2020-09-07)">
  <metadata
     id="metadata10">
    <rdf:RDF>
      <cc:Work
         rdf:about="">
        <dc:format>image/svg+xml</dc:format>
        <dc:type
           rdf:resource="http://purl.org/dc/dcmitype/StillImage" />
      </cc:Work>
    </rdf:RDF>
  </metadata>
  <defs
     id="defs8" />
  <sodipodi:namedview
     pagecolor="#ffffff"
     bordercolor="#666666"
     borderopacity="1"
     objecttolerance="10"
     gridtolerance="10"
     guidetolerance="10"
     inkscape:pageopacity="0"
     inkscape:pageshadow="2"
     inkscape:window-width="1536"
     inkscape:window-height="800"
     id="namedview6"
     showgrid="false"
     inkscape:zoom="40.875"
     inkscape:cx="8"
     inkscape:cy="8"
     inkscape:window-x="0"
     inkscape:window-y="27"
     inkscape:window-maximized="1"
     inkscape:current-layer="svg4" />
  <path
     d="M 10,0 C 9.31,0.874 8.603,1.757 7.992,2.656 7.313,3.656 6.705,4.628 6.167,5.568 5.67,6.436 5.297,7.342 5,8 5.297,8.658 5.67,9.564 6.167,10.432 a 45.19,45.19 0 0 0 1.825,2.912 C 8.602,14.244 9.309,15.126 10,16 V 14.51 C 9.6,13.986 9.163,13.448 8.778,12.885 a 32.845,32.845 0 0 1 -1.37,-2.18 39.196,39.196 0 0 1 -1.285,-2.5 V 8.204 L 6.027,8 6.123,7.797 C 6.457,7.087 6.975,6.05 7.408,5.296 A 33.18,33.18 0 0 1 8.778,3.115 C 9.163,2.553 9.6,2.015 10,1.49 Z"
     fill="#808080"
     id="path2" />
</svg>
